teeny/outline/rewind-circle.svg

<svg width="15" height="15" viewBox="0 0 15 15" fill="none" xmlns="http://www.w3.org/2000/svg">
<path d="M6.5 5.5H7C7 5.32176 6.90512 5.15701 6.75096 5.06754C6.59681 4.97808 6.40668 4.97745 6.25193 5.06588L6.5 5.5ZM6.5 9.5L6.25193 9.93412C6.40668 10.0226 6.59681 10.0219 6.75096 9.93246C6.90512 9.84299 7 9.67824 7 9.5H6.5ZM3 7.5L2.75193 7.06588C2.59614 7.1549 2.5 7.32057 2.5 7.5C2.5 7.67943 2.59614 7.8451 2.75193 7.93412L3 7.5ZM10.5 5.5H11C11 5.32176 10.9051 5.15701 10.751 5.06754C10.5968 4.97808 10.4067 4.97745 10.2519 5.06588L10.5 5.5ZM10.5 9.5L10.2519 9.93412C10.4067 10.0226 10.5968 10.0219 10.751 9.93246C10.9051 9.84299 11 9.67824 11 9.5H10.5ZM7 7.5L6.75193 7.06588C6.59614 7.1549 6.5 7.32057 6.5 7.5C6.5 7.67943 6.59614 7.8451 6.75193 7.93412L7 7.5ZM7.5 15C11.6421 15 15 11.6421 15 7.5H14C14 11.0899 11.0899 14 7.5 14V15ZM0 7.5C0 11.6421 3.35786 15 7.5 15V14C3.91015 14 1 11.0899 1 7.5H0ZM7.5 0C3.35786 0 0 3.35786 0 7.5H1C1 3.91015 3.91015 1 7.5 1V0ZM7.5 1C11.0899 1 14 3.91015 14 7.5H15C15 3.35786 11.6421 0 7.5 0V1ZM6 5.5V9.5H7V5.5H6ZM6.74807 9.06588L3.24807 7.06588L2.75193 7.93412L6.25193 9.93412L6.74807 9.06588ZM3.24807 7.93412L6.74807 5.93412L6.25193 5.06588L2.75193 7.06588L3.24807 7.93412ZM10 5.5V9.5H11V5.5H10ZM10.7481 9.06588L7.24807 7.06588L6.75193 7.93412L10.2519 9.93412L10.7481 9.06588ZM7.24807 7.93412L10.7481 5.93412L10.2519 5.06588L6.75193 7.06588L7.24807 7.93412Z" fill="black"/>
</svg>

<svg viewBox="0 0 15 15" xmlns="http://www.w3.org/2000/svg"><path d="M6.5 5.5H7c0-.18-.1-.35-.25-.44 -.16-.09-.35-.1-.5-.01l.24.43Zm0 4l-.25.43c.15.08.34.08.49-.01 .15-.09.24-.26.24-.44h-.5ZM3 7.5l-.25-.44c-.16.08-.26.25-.26.43 0 .17.09.34.25.43l.24-.44Zm7.5-2h.5c0-.18-.1-.35-.25-.44 -.16-.09-.35-.1-.5-.01l.24.43Zm0 4l-.25.43c.15.08.34.08.49-.01 .15-.09.24-.26.24-.44h-.5ZM7 7.5l-.25-.44c-.16.08-.26.25-.26.43 0 .17.09.34.25.43l.24-.44Zm.5 7.5c4.14 0 7.5-3.36 7.5-7.5h-1c0 3.58-2.92 6.5-6.5 6.5v1ZM0 7.5C0 11.64 3.35 15 7.5 15v-1C3.91 14 1 11.08 1 7.5H0ZM7.5 0C3.35 0 0 3.35 0 7.5h1C1 3.91 3.91 1 7.5 1V0Zm0 1C11.08 1 14 3.91 14 7.5h1C15 3.35 11.64 0 7.5 0v1ZM6 5.5v4h1v-4H6Zm.74 3.56l-3.5-2 -.5.86 3.5 2 .49-.87Zm-3.5-1.14l3.5-2 -.5-.87 -3.5 2 .49.86Zm6.75-2.44v4h1v-4h-1Zm.74 3.56l-3.51-2 -.5.86 3.49 2 .49-.87ZM7.22 7.9l3.5-2 -.5-.87 -3.5 2 .49.86Z"/></svg>
